X: 53
T:Farewell to Ireland (D)
M:C|
L:1/8
R:reel
K:D
|D2(3FED FA~A2|fedf edBc|dBAF~G3B|AF~F2 EGFE|!
D2(3FED FA~A2|fedf edBc|dBAF ~G3B|AF~F2 EGFE:|!
|defg afdf|g2fg eA~A2|defg afdf|(3gfe fd ~e3A|!
defg ~a3f|g2fge A~A2|dBAF ~G3B|AF~F2 EGFE:||
